svgs/sharp-solid/pallet-box.svg

<svg xmlns="http://www.w3.org/2000/svg" viewBox="0 0 640 512"><!--! Font Awesome Pro 6.6.0 by @fontawesome - https://fontawesome.com License - https://fontawesome.com/license (Commercial License) Copyright 2024 Fonticons, Inc. --><path d="M128 0L256 0l0 128 64-48 64 48L384 0 512 0l0 256-384 0L128 0zM0 320l32 0 32 0 32 0 32 0 160 0 32 0 32 0 160 0 32 0 32 0 32 0 32 0 0 64-32 0-32 0 0 64 32 0 32 0 0 64-32 0-32 0-32 0-32 0-160 0-32 0-32 0-160 0-32 0-32 0-32 0L0 512l0-64 32 0 32 0 0-64-32 0L0 384l0-64zM128 448l160 0 0-64-160 0 0 64zm224 0l160 0 0-64-160 0 0 64z"/></svg>

<svg xmlns="http://www.w3.org/2000/svg" viewBox="0 0 640 512"><!--! Font Awesome Pro 6.5.2 by @fontawesome - https://fontawesome.com License - https://fontawesome.com/license (Commercial License) Copyright 2024 Fonticons, Inc. --><path d="M128 0H256V128l64-48 64 48V0H512V256H128V0zM0 320H32 64 96h32H288h32 32H512h32 32 32 32v64H608 576v64h32 32v64H608 576 544 512 352 320 288 128 96 64 32 0V448H32 64V384H32 0V320zM128 448H288V384H128v64zm224 0H512V384H352v64z"/></svg>
